storage/app/icons/phosphoricons/duotone/selection-inverse-duotone.svg

<svg xmlns="http://www.w3.org/2000/svg" fill="currentColor" viewBox="0 0 256 256"><path d="M216 48v160a8 8 0 0 1-2.34 5.66L42.34 42.34A8 8 0 0 1 48 40h160a8 8 0 0 1 8 8" opacity=".2"/><path d="M152 216a8 8 0 0 1-8 8h-32a8 8 0 0 1 0-16h32a8 8 0 0 1 8 8M40 152a8 8 0 0 0 8-8v-32a8 8 0 0 0-16 0v32a8 8 0 0 0 8 8m32 56H48v-24a8 8 0 0 0-16 0v24a16 16 0 0 0 16 16h24a8 8 0 0 0 0-16M224 48v160a16 16 0 0 1-16 16h-24a8 8 0 0 1 0-16h12.69L48 59.31V72a8 8 0 0 1-16 0V48a16 16 0 0 1 16-16h160a16 16 0 0 1 16 16m-16 0H59.31L208 196.69Z"/></svg>

<svg xmlns="http://www.w3.org/2000/svg" viewBox="0 0 256 256" fill="currentColor"><path d="M216,48V208a8,8,0,0,1-2.34,5.66L42.34,42.34A8,8,0,0,1,48,40H208A8,8,0,0,1,216,48Z" opacity="0.2"/><path d="M152,216a8,8,0,0,1-8,8H112a8,8,0,0,1,0-16h32A8,8,0,0,1,152,216ZM40,152a8,8,0,0,0,8-8V112a8,8,0,0,0-16,0v32A8,8,0,0,0,40,152Zm32,56H48V184a8,8,0,0,0-16,0v24a16,16,0,0,0,16,16H72a8,8,0,0,0,0-16ZM224,48V208a16,16,0,0,1-16,16H184a8,8,0,0,1,0-16h12.69L48,59.31V72a8,8,0,0,1-16,0V48A16,16,0,0,1,48,32H208A16,16,0,0,1,224,48Zm-16,0H59.31L208,196.69Z"/></svg>
